X:1
T:6 Lieder, Op.15
T:Rette Vater, Dein geliebtes Kind!
T:5. Rette Vater, dein geliebtes Kind!
T:Johanna Kinkel
T:Gottfried Kinkel
T:6 Lieder, Op.15 (für Alt oder Bariton) 
T:Creative Commons copyright waiver (CC0 1.0 Universal)
T:Creative Commons copyright waiver (CC0 1.0 Universal)
C:Johanna Kinkel
Z:Gottfried Kinkel
Z:Creative Commons copyright waiver (CC0 1.0 Universal)
%%score 1 { ( 2 4 ) | ( 3 5 ) }
L:1/8
Q:1/4=52
M:4/4
K:G
V:1 treble nm="Gesang\nVoice"
V:2 treble nm="Pianoforte"
V:4 treble 
V:3 bass 
V:5 bass 
V:1
"^Maestoso" z8 |: z4 z2!mf! D3/2 D/ | %2
w: |1. Ei- nem|
w: |2. Mag ich|
w: |3. Ja, du|
"^NOTE:  the split measure (in IMSLP score) has been eliminated" G3 G G3 ^G | A2 E2 z2 A3/2 G/ | %4
w: Ruf hab ich ge-|lau- schet, den du|
w: denn auch rin- gen|stre- ben, ganz die|
w: nährst die Kraft! Ge-|wal- tig steh ich|
 F2 E2 D2 F2 | A4 G2 z2 |!f! B6 B2 | B4 F4 | ^A6 ^c2 | %9
w: mir in’s Herz ge-|sen- det,|Ew- ger|Va- ter,|Quell des|
w: Welt mir zu er-|käm- pfen,|dass sie|die- ne|dei- nem|
w: in dem Streit als|Sie- ger;|a- ber|weh! mich|trifft ihr|
"^Missing augmentation dot\nin IMSLP edition\n" !fermata!B6!mf! B3/2 A/ | ^G3 E E3 E | %11
w: Lichts! Mein Ver-|der- ben ist ge-|
w: Reich! Ach ich|kann sie doch nicht|
w: Zorn! Und den|küh- nen Got- tes-|
 E>D C2 z2 A3/2 G/ | F3 D D3 D | %13
w: wen- * det, nicht mehr|Tod- ver- kün- dend|
w: däm- * pfen, oft noch|muss ich mich er-|
w: krie- * ger, trifft, ver-|schmäht sie viel- ge-|
 D>C _B,2!f!"^* Die zweite Strophe muss hier piano und rallentando vorgetragen werden.""^* For the second verse play this passage <i>piano</i> and <i>rallentando</i>" B,3 D | %14
w: rau- * schet mir der|
w: ge- * ben ih- rem|
w: stal- * tig mit des|
 _E3 G _B3 G"^*""^*" | !fermata!A4 !fermata!z4 |!mf! =B2 A2 G3/2 F/ G3/2 A/ | F D z2 z4 | %18
w: Sturm des Welt- ge-|richts!|Doch wie sie mir Scha- den|bräch- ten,|
w: Lok- ken süss und|weich.|Schau wie sie mit Zau- ber-|flech- ten|
w: bit- tern To- des|Dorn.|Mit dem letz- ten Feind zu|fech- ten,|
!p! B2 A2 G3/2 F/!pp! G3/2 A/ | F2 z2 z4 |!ff! B4 G2 z2 | d4 A2 z2 | B3!p! D!<(! =F3 F | %23
w: stets die Schaar der Fein- de|sinnt;|Ret- te,|ret- te|Du aus die- sen|
w: ih- rer Schön- heit mich um-|spinnt;|Ret- te,|ret- te|Du aus Sün- den|
w: hilf, Herr, mei- ne Kraft ver-|rinnt;|Ret- te,|ret- te|Du aus To- des|
 (!>!_E7/2 D/)!<)!!mp! C4 |!mf!"^ritenuto un poco"[Q:1/4=51]!<(! c4 B4 | (B2 A2) G4 | %26
w: Näch- * ten,|Va- ter,|dein _ ge-|
w: Näch- * ten,|" "|" * "|
w: Näch- * ten,|" "|" * "|
"^molto rallent."[Q:1/4=48] A4!<)![Q:1/4=44]!f!!>(! B7/2 !fermata!A/ | G4!>)! z4[Q:1/4=49] | %28
w: lieb- * tes|Kind!|
w: " * "|"|
w: " * "|"|
"^a tempo."[Q:1/4=52]"^.5"!mf! A4 D2 z2 |!>(! !>!E2 D2 B3 G | %30
w: Ret- te|* ter, dein ge-|
w: " "|* " " "|
w: " "|* " " "|
"^calando."[Q:1/4=51] (F4{GF}[Q:1/4=49] E3) F!>)! |!pp![Q:1/4=51] G4[Q:1/4=52]"^.5" z4 :| z8 | z8 | %34
w: lieb- * tes|Kind!|||
w: " * "|"|||
w: " * "|"|||
"_( Gottfried Kinkel )" !fermata!z8 |] %35
w: |
w: |
w: |
V:2
!f! [B,D]3 [A,B,^D] [^G,B,E]3 [B,E^G] |: [A,EA][EAc]!>(![D^GB][CEA] [B,DA][B,D=G][A,CG][A,CF]!>)! | %2
!mf! [B,G]3 [B,G] G3 (^G | A2) z2 C[^G,D][A,E][A,E] | ED- DC- CD/E/ DC | [A,C]4 B,2 z2 | %6
!f! [B,EG]2 [B,EG]>[B,EG] !>![B,FA]2 [B,EG]2 | [B,^DF]2 [FB^d]>[FBd] [F^ce]2 [FBd]2 | %8
 [E^A^c]2 [EAc]>[EAc] !>![EAc]2 [EAc]2 | [^DFB]2 [F,B,D]>[F,B,D] !fermata![F,B,D]2!mf! [B,D][B,F] | %10
 [B,E]2 .[^G,B,].[A,C] .[B,D].[A,C].[B,D].[G,B,] | [A,C]>[B,D] [CE]2 z2 [A,E][A,E] | %12
 [A,D]2[I:staff +1] .[F,A,].[G,_B,] .[A,C].[G,B,].[A,C].[F,A,] | %13
 [G,_B,]>[A,C] [B,D]2!f! (3[_A,B,][A,B,][A,B,] (3[A,B,][A,B,][A,B,] | %14
 (3[G,_B,]"_Need to add flats to Bs"[I:staff -1][!courtesy!_B,_EG][B,EG] (3[B,EG][B,EG][B,EG] (3[^CG] !3
1
![CG]!4
1
![CA] (3[C!courtesy!_B][CA][CG] | %15
 (3[D^FA][DFA][DFA] (3[DFA][DFA][DFA] [DFA]2 !fermata!z2 |!mf! [DG=B]2 [B,FA]2 [B,EG]2 [A,EG]2 | %17
 [DF][Ad] e>c!>(! cB/c/ dc!>)! |!p! [DGB]2 [B,FA]2 [B,EG]2!pp! [A,EG]2 | %19
 [DF]!mp![Ad] e>c cB/c/!<(! dc!<)! |!ff! G, D[DG][DB] [Dd][DB][DA][DG] | %21
[I:staff +1] D,[I:staff -1] D[DF][DA] [Dd][Dc][DB][DA] | %22
 [G,G]!pp!!<(![I:staff +1] [=F,B,][F,B,][F,B,] !/![F,B,]4 |[I:staff -1] !/!C4!mp! !/!C4!<)! | %24
!mf!!<(! [C_EA][CEA][CDA][CDA] [B,DA][B,DA][B,DG][B,DG] | %25
 [B,G][B,G][B,F][B,F] [B,F][B,F][B,E][B,EG] | %26
 [A,EG]4!<)!!f! [A,DG][A,DG] !fermata![A,=CG] !fermata![A,CF] | z!>(! D[DG][DB] [Dd][DB][DA][DG] | %28
 z D[DF][DA] [Dd][Dc][DB][DA] | G4 z [G,B,D][G,B,D][G,B,D] | %30
"^calando." z [A,CD][A,CD][A,CD] z [A,CD][A,CD][A,CD]!>)! | %31
"^a tempo"!p! [B,D]3 [A,B,^D] [^G,B,E]3 [B,E^G] :| %32
 [A,EA][EAc][D^GB][CEA] [B,-DA][B,D=G][A,-CG][A,CF] | [B,DG]4!f! [CEG]4 | !fermata![B,DG]8 |] %35
V:3
 .[G,,G,].[A,,A,].[G,,G,].[F,,F,] .[E,,E,].[=F,,=F,].[E,,E,].[D,,D,] |: %1
 [C,,C,][A,,,A,,][B,,,B,,][C,,C,] [D,,D,]4 | (G,F,E,^D,) (E,=D,C,B,,) | A,,4- A,,B,,C,^C, | %4
 D,2 E,2 F,2 D,2 | (D,^D,E,F,) [G,,G,][A,,A,][G,,G,][F,,F,] | %6
 [E,,E,]2 [E,,E,]>[E,,E,] [^D,,^D,]2 [E,,E,]2 | [B,,,B,,]2 [B,,B,]>[B,,B,] [^A,,^A,]2 [B,,B,]2 | %8
 [F,,F,]2 [F,,F,]>[F,,F,] !>![G,,G,]2 [F,,F,]2 | %9
 [B,,,B,,]2 [B,,,B,,]>[B,,,B,,] !fermata![B,,,B,,]2 [B,,,B,,][^D,,^D,] | %10
 [E,,E,]3 [E,,E,] [E,,E,]3 [E,,E,] | E,4 C,B,,C,^C, | D,3 [D,,D,] [D,,D,]3 [D,,D,] | %13
 [G,,D,]4 (3[=F,,D,][F,,D,][F,,D,] (3[F,,D,][F,,D,][F,,D,] | %14
 (3[_E,,_E,] E,,!3!^F,, (3!2!G,,!1!A,,!2!_B,, (3!1!_E,E,E, (3[E,,E,][E,,E,][E,,E,] | %15
"_IMSLP has confusing \nor inaccurate tremolo -\nreplace with quavers for clarity\n" (3[D,,D,][D,,D,][D,,D,] (3[D,,D,][D,,D,][D,,D,] [D,,D,]2 !fermata!z2 | %16
 G,,G,B,,^D, E,=D,^C,A,, | D,F,^G,E, A,=G,F,D, | G,,G,B,,^D, E,=D,^C,A,, | D,F,^G,E, A,=G,F,D, | %20
 [G,,,G,,] [D,G,B,][D,G,B,][D,G,B,] !/![D,G,B,]4 | %21
!8vb(! D,,,!8vb)! [D,F,C][D,F,C][D,F,C] !/![D,F,C]4 | [G,,,G,,] [G,,D,][G,,D,][G,,D,] !/![G,,D,]4 | %23
"_I have added\ntremolo to\n bass notes\n" !/!!>![_A,,,_A,,]4 !/!!>![G,,,G,,]4 | %24
 [F,,F,][F,,F,][F,,F,][F,,F,] !/![G,,G,]4 | !/![^D,,^D,]4 [E,,E,][E,,E,][E,,E,][=D,,=D,] | %26
 [C,,C,][C,,C,][^C,,^C,][C,,C,] [D,,D,][D,,D,][D,,D,] !fermata![D,,D,] | %27
 [G,,,G,,]!mf! [D,G,B,][D,G,B,][D,G,B,] !/![D,G,B,]4 | [D,,D,] [D,F,C][D,F,C][D,F,C] !/![D,F,C]4 | %29
 G,,4 [D,,D,]4 | [D,,D,]4 [D,,D,]4 | %31
 [G,,G,]!mf![A,,A,][G,,G,][F,,F,] [E,,E,][=F,,=F,][E,,E,][D,,D,] :| %32
 [C,,C,][A,,,A,,][B,,,B,,][C,,C,] !/![D,,D,]4 | [G,,D,]4 [C,,C,]4 | !fermata![G,,,G,,]8 |] %35
V:4
 x8 |: x8 | x4 B,C/D/ED- | DE/D/CB, x4 | A,2 G,2 A,2 A,2 | x8 | x8 | x8 | x8 | x8 | x8 | x8 | x8 | %13
 x8 | x8 | x8 | x8 | x2 B2 A2 A2 | x8 | x2 B2 A2 A2 | x8 | x8 | x8 | %23
[I:staff +1] !/![C,_E,]4 !/![C,E,]4 | x8 | x8 | x8 | x8 | x8 |[I:staff -1] G[B,D][B,D][B,D] x4 | %30
 x8 | x8 :| x8 | x8 | x8 |] %35
V:5
 x8 |: x8 | x8 | x8 | x8 | G,,4 x4 | z8 | x8 | x8 | x8 | x8 | A,,3 B,, x4 | x8 | x8 | x8 | x8 | %16
 x8 | x8 | x8 | x8 | x8 |!8vb(! x!8vb)! x7 | x8 | x8 | x8 | x8 | x8 | x8 | x8 | %29
 G,,[D,G,][D,G,][D,G,] x4 | x8 | x8 :| x8 | x8 | x8 |] %35

